X:195
T: Adieu du Gnral Bertrand (3-36), S. 92ff
N: K1170
O: Luxemburg
S: KINTZELE, Guillaume: An der Ucht, Bd. 3 Luxemburg 1928]
N: in der Quelle mit einer 2. Stimme versehen
R: historisches, Kriegslied]
M: 4/4
L: 1/8
K: C
EEC | G3GGGAG | G2G2z
GAG | c3GEEGE | D4z
DDD | G3GGGAB | B2A2z
AcA | G3G^FGAB | G4z
GGG | d3dcBAG | c2c2z
GAB | c2E2AGEC | D4z
GGF | E3EFFED | A2G2z
cBA | G3EDDAG | E4z
GGF | E3EFFED | A2G2z
cBA | G3GAGFD | C4z
GGF | E3EFFED | A2G2z
cBA | G3GAGED | C4z

@@@ Tune index: 8249
